X: 1212
T: Craig's Reel
M:C|
L:1/8
R:Reel
B:O'Neill's 1212
N:Collected by Early
Z:Transcribed by Trish O'Neil
K:D
FDFAB2Bc|dBcA BEEG|FDFA BABc|dABG FDD2|
FDFAB2Bc|dBcA BEEG|(3FED EF GABc|dABG FDD2||
d2fd Adfd|Adfd eBB2|d2fd Adfd|(3fga eg fdd2|
d2fd Adfd|Adfd eBB2|g2fd (3efg fe|dBAG FDD2||


